packages/icon/src/svg/thumb-down-fill.icon.svg

<svg viewBox="0 0 24 24" xmlns="http://www.w3.org/2000/svg">
<path fill-rule="evenodd" d="M16.0204 15.2017C15.3881 15.303 14.8894 15.4277 14.6 15.5C13.3121 15.868 11.8401 16.9238 11.6 18.3C11.413 19.372 11.4168 20.5113 11.42 21.2412C11.4203 21.3001 11.4202 21.3563 11.4201 21.4096C11.42 21.4352 11.42 21.4602 11.42 21.4844C11.42 22.9062 11 23 10 23C9.42188 23 8.49837 22.8715 7.7 21.9844C7.03494 21.2454 6.66 20.5 6.66 19.1C6.66 18.217 6.71186 17.3881 6.86 16.6931C6.93277 16.3516 6.6791 16 6.33 16H3.8C2.3 16 1 14.7 1 13.2C1 12.6699 1.15611 12.2179 1.26145 11.9128C1.27534 11.8726 1.28835 11.835 1.3 11.8C1.28964 11.7689 1.2781 11.7354 1.26592 11.7C1.16059 11.3939 1 10.9273 1 10.3C1 9.67274 1.1607 9.20575 1.26603 8.89968C1.27821 8.8643 1.28964 8.83108 1.3 8.8C1.1 8.4 1 8 1 7.3C1 6.1 1.7 5.4 2 5.1V4.8C2 3.2 3.2 2 4.8 2H9C11.7 2 13.3 2.6 14.9 3.2L15.2 3.3C15.2618 3.36181 15.5529 3.46184 16.0732 3.62369C16.2219 3.25791 16.5808 3 17 3H21C21.5523 3 22 3.44771 22 4V15C22 15.5523 21.5523 16 21 16H17C16.5168 16 16.1137 15.6573 16.0204 15.2017ZM20 14H18V5H20V14Z"/>
</svg>

<svg aria-label="thumb down fill icon" viewBox="0 0 24 24"><path fill-rule="evenodd" d="M16.02 15.202c-.632.101-1.13.226-1.42.298-1.288.368-2.76 1.424-3 2.8-.187 1.072-.183 2.211-.18 2.941v.243C11.42 22.906 11 23 10 23c-.578 0-1.502-.128-2.3-1.016-.665-.739-1.04-1.484-1.04-2.884 0-.883.052-1.712.2-2.407.073-.341-.18-.693-.53-.693H3.8C2.3 16 1 14.7 1 13.2c0-.53.156-.982.261-1.287L1.3 11.8l-.034-.1C1.16 11.394 1 10.927 1 10.3c0-.627.16-1.094.266-1.4l.034-.1C1.1 8.4 1 8 1 7.3c0-1.2.7-1.9 1-2.2v-.3C2 3.2 3.2 2 4.8 2H9c2.7 0 4.3.6 5.9 1.2l.3.1c.062.062.353.162.873.324A1 1 0 0117 3h4a1 1 0 011 1v11a1 1 0 01-1 1h-4a1 1 0 01-.98-.798zM20 14h-2V5h2v9z"/></svg>
